X: 4312
T: Lord Montgomerie's    Strathspey
C: by John Gow
%R: strathspey, air
N: This is version 2, for ABC software that understands voice overlays.
B: Niel Gow & Sons "A Fourth Collection of Strathspey Reels, etc." v.4 p.31 #2
Z: 2022 John Chambers <jc:trillian.mit.edu>
M: C
L: 1/8
Q: "Slow"
K: Gm
% - - - - - - - - - -
% Voice 1 reformatted for 2 6-bar lines.
V: 1 staves=2
B |\
G<G TG>^F GG, G,C/B,/ | A,C {=E}F>D (C/D/)(B,/C/) A,>B |\
G>G TG>B, (G,/A,/B,/C/) D>B | (A/c/e/d/) (c/B/A/B/) {A}G2G :| G/A/ |\
BG TG>A (B/c/d/)B/ GG/A/ | BG TG>F (D/F/).B/.G/ FG/A/ |
BG ~d>e ~c>d Bb/a/ | g>a T^f2 {=ef}g2 gG/A/ ||\
BG TG>A (B/c/d/)B/ GG/A/ | BG TG>F (D/F/B/G/) FG/A/ |\
B>G (3.E(ec) (3.D(dB) (3.C(cA) | (3.B,(BG) (3.A,(A^F) {F}G2G |]
% - - - - - - - - - -
% Voice 2 preserves the staff layout in the book.
V: 2 clef=bass middle=d
z | g2d2 G2G2 | F2F2 F2F2 | G2G2 G2B2 | c2d2 G2G :| z | g2g2 g2g2 |
g2d2 f2f2 | x2b>c' a>bb2 & g4 x2g2 | d'2d2 g2g2 || g2g2 g2g2 | g2d2 f2f2 | g2[c'2c2] [b2B2][a2A2] | [g2G2][d2D2] G2G |]
